X:71
T:Brande de St Marc
O:France
A:Provence
C:Trad.
R:Marche
S:Carnet du tambourinaire Ginas (1924)
Z:Transcrit et/ou corrig par Michel BELLON - 2005-02-27
Z:Pour toute observation mailto:galouvielle@free.fr
M:6/8
L:1/8
K:Bb
V:Galoubet
f2ff2d | f2ec3 | defe2d | cdcB2z | B2cd2B | Bcde2c | cde f2e | d2c B2z | B2cd2B | Bcde2c | cde f2e | d2cB2z |]
%%footer $D   Galouvielle-MBe 2005 \nMarche France
